svg/hiv_pos_negative.svg

<?xml version="1.0" encoding="UTF-8" standalone="no"?>
<!-- Created with Inkscape (http://www.inkscape.org/) -->
<svg id="svg8" xmlns:rdf="http://www.w3.org/1999/02/22-rdf-syntax-ns#" xmlns="http://www.w3.org/2000/svg" xmlns:osb="http://www.openswatchbook.org/uri/2009/osb" height="48" width="48" version="1.1" xmlns:cc="http://creativecommons.org/ns#" viewBox="0 0 12.7 12.7" xmlns:dc="http://purl.org/dc/elements/1.1/">
 <title id="title4753">UIO-icon</title>
 <metadata id="metadata5">
  <rdf:RDF>
   <cc:Work rdf:about="">
    <dc:format>image/svg+xml</dc:format>
    <dc:type rdf:resource="http://purl.org/dc/dcmitype/StillImage"/>
    <dc:title>UIO-icon</dc:title>
    <dc:creator>
     <cc:Agent>
      <dc:title>Joaquín Urbano</dc:title>
     </cc:Agent>
    </dc:creator>
    <dc:rights>
     <cc:Agent>
      <dc:title>GPL</dc:title>
     </cc:Agent>
    </dc:rights>
   </cc:Work>
  </rdf:RDF>
 </metadata>
 <g id="layer1" transform="translate(0,-284.3)">
  <path id="rect13088" d="m0 0v48h48v-48zm23.393 3.459h0.001953c0.009913-0.000054047 0.017883 0.000002646 0.027344 0 7.0398 0.019502 8.1335 4.1161 8.0742 12.484-0.00878 0.54343-0.022609 1.8203-1.1406 2.0684v-3.584c0.013839-1.5223-0.96605-3.4019-2.4316-3.8008-2.791-0.463-3.446-0.016-4.098-3.5303-0.3 0.5174-2.946 3.4733-4.275 3.9393-1.008 0.253-2.116-0.084-3.051-0.818l-0.070312 7.8965c-1.1776 0.020107-0.96733-1.3673-1.0703-2.1699-0.041-9.3745 1.146-12.477 8.033-12.485zm0.14062 5.1094c0.47587 4.7418 5.5877-0.097489 6.3125 6.5234l0.007813 2.9883c0.005 1.885-0.32517 4.0321-1.6602 4.873-1.89 1.19-3.1723 2.1653-4.8359 2.2129-1.1393 0.0037-2.7933-1.2097-4.3652-2.1934-1.4135-0.88419-2.0469-3.0407-2.0469-4.916-0.033116-2.2761-0.001796-4.4788 0.13672-6.7168 2.5587 1.3024 4.1912-0.50161 6.4512-2.7715zm-3.1016 5.8574c-0.43895 0.00010998-0.79482 0.35594-0.79492 0.79492 0.00010005 0.43888 0.35595 0.79481 0.79492 0.79492 0.43899-0.00010961 0.79483-0.35598 0.79492-0.79492-0.00009003-0.43891-0.35595-0.79481-0.79492-0.79492zm5.9688 0c-0.43895 0.00010998-0.79482 0.35594-0.79492 0.79492 0.00010005 0.43888 0.35595 0.79481 0.79492 0.79492 0.43895-0.00010961 0.79482-0.35598 0.79492-0.79492-0.00010001-0.43891-0.35595-0.79481-0.79492-0.79492zm-2.9844 3.668c-0.39814 0-0.72 0.066422-0.7168 0.14844 0.00203 0.080874 0.32239 0.14652 0.7168 0.14648 0.39441 0.00038171 0.7148-0.065602 0.7168-0.14648 0.004021-0.077858-0.28788-0.14466-0.66602-0.14844-0.016777-0.00011339-0.033774-0.00011339-0.050781 0zm0.22852 2.8945c-0.064879-0.00065424-0.13047 0.004587-0.19531 0.003906-1.4516 0.024038-2.574 0.083598-2.5605 0.13672 0.019272 0.055038 1.2494 0.081523 2.7578 0.060547 1.4968-0.020939 2.7051-0.081991 2.7402-0.13672-0.008957-0.055245-1.2257-0.084791-2.7422-0.064453zm2.7422 0.064453c0.00006841 0.00038964 0.011768 0.001541 0.011719 0.001953v-0.001953c-0.00012753 0.00040287-0.011277-0.00047698-0.011719 0zm-14.632 4.901c0.78498 0.006735 1.5508 0.10155 2.3027 0.26367-0.27866 0.85879-0.6068 1.7602-1.2773 2.7695-0.61899-0.29013-1.6388-0.16884-2.2578 0.025391-0.49-0.875-0.8694-1.471-1.1822-2.793 0.8262-0.189 1.6292-0.274 2.4142-0.266zm-2.6914 0.53906 0.070312 0.37695c0.099691 0.54922 0.55661 1.4647 1.3828 2.7578 0.39972 0.6256 0.72852 1.1616 0.72852 1.1934 0 0.080266-1.6424 2.4258-1.6973 2.4238-0.024858-0.00094898-0.33764-0.44986-0.69531-0.99805-0.88953-1.3633-0.86404-1.2989-0.81641-2.0938 0.032216-0.53773 0.14719-1.0116 0.5332-2.1738zm5.293 0 0.5 1.5293c0.5 1.53 0.628 2.222 0.517 2.815-2.541 5.051-5.6195 7.923-8.6328 12.975-0.6883-0.757-1.3506-1.708-1.9688-2.579 3.0497-4.314 5.3136-7.478 8.1696-11.654 0.737-1.172 1.244-2.189 1.338-2.682zm3.6328 3.918h1.3203v2.5938h2.5762v-2.5938h1.3203v6.4043h-1.3203v-2.744h-2.5762v2.7441h-1.3203zm6.459 0h1.3203v6.4043h-1.3203zm2 0h1.4648l1.4434 4.8164 1.4531-4.8164h1.469l-2.2324 6.4043h-1.377zm12.877 0h1.3203v2.541h2.541v1.3203h-2.541v2.543h-1.3203v-2.543h-2.543v-1.3203h2.543zm-25.436 4.108c1.5852 2.2416 3.1708 4.4829 4.7559 6.7246-0.71737 1.0001-1.2151 1.7187-1.916 2.625-1.3321-1.8611-2.4121-3.5512-3.7168-5.4395-0.46187-0.67757-0.82484-1.2873-0.80469-1.3574 0.020078-0.07004 0.40692-0.67314 0.85938-1.3398z" fill-rule="evenodd" transform="matrix(.26458 0 0 .26458 0 284.3)" fill="#333"/>
  <g id="layer1-8" fill="#f00"></g>
 </g>
</svg>

<svg width="48" height="48" viewBox="0 0 48 48" fill="none" xmlns="http://www.w3.org/2000/svg">
<path fill-rule="evenodd" clip-rule="evenodd" d="M0 0V47.9994H47.9994V0H0ZM23.3927 3.45896H23.3947C23.4046 3.4589 23.4125 3.45896 23.422 3.45896C30.4617 3.47846 31.5554 7.57501 31.4961 15.9428C31.4873 16.4862 31.4735 17.7631 30.3555 18.0112V14.4272C30.3694 12.9049 29.3895 11.0254 27.9239 10.6265C25.133 10.1635 24.478 10.6105 23.826 7.09621C23.526 7.6136 20.88 10.5695 19.5511 11.0355C18.5431 11.2885 17.4351 10.9515 16.5001 10.2175L16.4298 18.1139C15.2522 18.134 15.4625 16.7466 15.3595 15.944C15.3185 6.56962 16.5055 3.46716 23.3924 3.45916L23.3927 3.45896ZM23.5333 8.56829C24.0092 13.31 29.121 8.4708 29.8457 15.0916L29.8536 18.0799C29.8586 19.9648 29.5284 22.1119 28.1934 22.9528C26.3034 24.1428 25.0211 25.1181 23.3575 25.1657C22.2183 25.1694 20.5643 23.956 18.9924 22.9723C17.5789 22.0881 16.9455 19.9317 16.9455 18.0564C16.9124 15.7803 16.9437 13.5776 17.0822 11.3397C19.6409 12.642 21.2734 10.8381 23.5334 8.56819L23.5333 8.56829ZM20.4318 14.4256C19.9928 14.4257 19.637 14.7816 19.6369 15.2205C19.637 15.6594 19.9928 16.0153 20.4318 16.0154C20.8707 16.0153 21.2266 15.6595 21.2267 15.2205C21.2266 14.7816 20.8707 14.4257 20.4318 14.4256ZM26.4005 14.4256C25.9615 14.4257 25.6057 14.7816 25.6056 15.2205C25.6057 15.6594 25.9615 16.0153 26.4005 16.0154C26.8394 16.0153 27.1953 15.6595 27.1954 15.2205C27.1953 14.7816 26.8395 14.4257 26.4005 14.4256ZM23.4161 18.0936C23.018 18.0936 22.6961 18.16 22.6993 18.242C22.7014 18.3229 23.0217 18.3885 23.4161 18.3885C23.8105 18.3889 24.1309 18.3229 24.1329 18.242C24.1369 18.1642 23.845 18.0974 23.4669 18.0936C23.4501 18.0935 23.4331 18.0935 23.4161 18.0936ZM23.6446 20.988C23.5798 20.9874 23.5142 20.9926 23.4493 20.9919C21.9978 21.016 20.8754 21.0755 20.8889 21.1287C20.9081 21.1837 22.1383 21.2102 23.6466 21.1892C25.1434 21.1683 26.3517 21.1072 26.3868 21.0525C26.3778 20.9972 25.1611 20.9677 23.6446 20.988ZM26.3868 21.0525C26.3869 21.0529 26.3986 21.054 26.3985 21.0544V21.0525C26.3984 21.0529 26.3873 21.052 26.3868 21.0525ZM11.755 25.9534C12.54 25.9602 13.3058 26.055 14.0577 26.2171C13.779 27.0759 13.4509 27.9773 12.7804 28.9866C12.1614 28.6964 11.1416 28.8177 10.5226 29.0119C10.0326 28.137 9.65322 27.541 9.34042 26.219C10.1666 26.03 10.9696 25.945 11.7546 25.953L11.755 25.9534ZM9.06363 26.4925L9.13394 26.8694C9.23363 27.4186 9.69054 28.3341 10.5167 29.6272C10.9164 30.2528 11.2452 30.7888 11.2452 30.8206C11.2452 30.9008 9.60285 33.2463 9.54795 33.2443C9.52309 33.2434 9.21032 32.7945 8.85265 32.2463C7.96313 30.883 7.98862 30.9474 8.03625 30.1525C8.06847 29.6148 8.18344 29.1409 8.56944 27.9788L9.06363 26.4925ZM14.3566 26.4925L14.8566 28.0218C15.3565 29.5517 15.4845 30.2437 15.3735 30.8367C12.8326 35.8877 9.75412 38.7596 6.74086 43.8116C6.05256 43.0546 5.39027 42.1036 4.77208 41.2326C7.82174 36.9186 10.0856 33.7547 12.9416 29.5787C13.6786 28.4068 14.1856 27.3898 14.2796 26.8968L14.3566 26.4925ZM17.9893 30.4104H19.3096V33.0042H21.8858V30.4104H23.2061V36.8147H21.8858V34.0707H19.3096V36.8148H17.9893V30.4104ZM24.4482 30.4104H25.7685V36.8147H24.4482V30.4104ZM26.4482 30.4104H27.913L29.3564 35.2268L30.8095 30.4104H32.2784L30.0461 36.8147H28.6691L26.4482 30.4104ZM39.325 30.4104H40.6453V32.9514H43.1863V34.2717H40.6453V36.8147H39.325V34.2717H36.7821V32.9514H39.325V30.4104ZM13.8894 34.5184C15.4745 36.76 17.0601 39.0012 18.6452 41.2429C17.9278 42.243 17.4301 42.9616 16.7292 43.8679C15.3971 42.0068 14.3172 40.3167 13.0125 38.4284C12.5506 37.7509 12.1876 37.1411 12.2078 37.071C12.2279 37.001 12.6147 36.3979 13.0672 35.7313L13.8894 34.5184Z" fill="#333333"/>
</svg>
